icon-themes/sifr_svg/cmd/lc_showinvalid.svg

<svg viewBox="0 0 24 24" xmlns="http://www.w3.org/2000/svg"><path d="m4 1v22h6v-22zm8 1v1.7070312l2.792969 2.7929688-2.792969 2.7929688v1.7070312h1.707031l2.792969-2.7929688 2.792969 2.7929688h1.707031v-1.7070312l-2.792969-2.7929688 2.792969-2.7929688v-1.7070312h-1.707031l-2.792969 2.7929688-2.792969-2.7929688zm-6 1h2v2h-2zm0 4h2v2h-2zm0 4h2v2h-2zm6 2v1.707031l2.792969 2.792969-2.792969 2.792969v1.707031h1.707031l2.792969-2.792969 2.792969 2.792969h1.707031v-1.707031l-2.792969-2.792969 2.792969-2.792969v-1.707031h-1.707031l-2.792969 2.792969-2.792969-2.792969zm-6 2h2v2h-2zm0 4h2v2h-2z" fill="#555753"/></svg>

<svg xmlns="http://www.w3.org/2000/svg" viewBox="0 0 24 24">
  <path
     style="fill:#555753"
     d="M 4 1 L 4 23 L 10 23 L 10 1 L 4 1 z M 12 2 L 12 3.7070312 L 14.792969 6.5 L 12 9.2929688 L 12 11 L 13.707031 11 L 16.5 8.2070312 L 19.292969 11 L 21 11 L 21 9.2929688 L 18.207031 6.5 L 21 3.7070312 L 21 2 L 19.292969 2 L 16.5 4.7929688 L 13.707031 2 L 12 2 z M 6 3 L 8 3 L 8 5 L 6 5 L 6 3 z M 6 7 L 8 7 L 8 9 L 6 9 L 6 7 z M 6 11 L 8 11 L 8 13 L 6 13 L 6 11 z M 12 13 L 12 14.707031 L 14.792969 17.5 L 12 20.292969 L 12 22 L 13.707031 22 L 16.5 19.207031 L 19.292969 22 L 21 22 L 21 20.292969 L 18.207031 17.5 L 21 14.707031 L 21 13 L 19.292969 13 L 16.5 15.792969 L 13.707031 13 L 12 13 z M 6 15 L 8 15 L 8 17 L 6 17 L 6 15 z M 6 19 L 8 19 L 8 21 L 6 21 L 6 19 z "
     />
</svg>
